X:1
T:Title
%%score 1 ( 2 3 )
L:1/8
Q:1/4=90
M:9/8
K:C
V:1 treble nm="Strings 1, Treble"
V:2 bass nm="Strings 1, Bass"
V:3 bass 
V:1
 z3 z3 [CE][DF][_E^F] | [EG]3 [Ge]3 [Gc]2 [FA] | [EG]3 [CE]3 [EG][FA][EG] | %3
 [DF]3 [B,D]3 [FA][FB][FA] | [EG]6 [CE][DF][_E^F] | [EG]3 [Ge]3 [Gc]2 [FA] | %6
 [EG]3 [CE]3 [EG][EA][E_B] | [DB]3 [Dd]2 [DB] [DA][^Fc][DF] | [DG]6 G3 | [Ge]3 [Ge]3 [Fd][Fc][FA] | %10
 [EG]3 [CE]3 [EG][FA][EG] | [DF]3 [B,D]3 [FA][FB][FA] | [EG]3 .[CE]3 G3 | %13
 [Ge]3 [Ge]3 [Fd][Fc][FA] | [EG]3 [CE]3 [CE][B,F][CG] | [FA][FB][^Fc] [=Fd]3- [Fd]2 [Ec] | %16
 [Ec]6 z3 |] %17
V:2
 z3 z3 [C,G,][C,G,][C,A,] | [C,C]3 [C,C]3 [E,C]2 [F,C] | [C,C]3 [C,G,]3 [C,C][C,C][C,C] | %3
w: 1.~Je sus~ my~|Sav ior~ came~ to~|save~ me~ When~ I~ was~|
 [G,,B,]3 [G,,G,]3 [G,,B,][G,,B,][G,,B,] | [C,C]6 [C,G,][C,G,][C,A,] | [C,C]3 [C,C]3 [E,C]2 [F,C] | %6
w: wan d'ring~ out~ in~ the~|night;~ Rich es~ of~|glo ry~ free ly~|
 [C,C]3 [C,G,]3 [C,C][C,C][^C,G,] | [D,G,]3 [D,B,]2 [D,G,] ^F,A,[D,C] | [G,,B,]6 [G,B,]3 | %9
w: gave~ me;~ Flood ed~ my~|soul~ with~ His~ won * drous~|light.~ *|
 [C,C]3 [C,_B,]3 [F,A,][F,A,][F,C] | [C,C]3 [C,G,]3 [C,C][C,C][C,C] | %11
w: ||
 [G,,B,]3 [G,,G,]3 [G,,B,][G,,B,][G,,B,] | [C,C]3 .[C,G,]3 [G,B,]3 | %13
w: ||
 [C,C]3 [C,_B,]3 [F,A,][F,A,][F,C] | [C,C]3 [C,G,]3 [C,G,][D,G,][E,C] | %15
w: ||
 [F,C]G,[A,C] [G,,G,B,]3- [G,,G,B,]2 [C,G,] | [C,G,]6 z3 |] %17
w: ||
V:3
 x9 | x9 | x9 | x9 | x9 | x9 | x9 | z3 z3 .D,3 | x9 | x9 | x9 | x9 | x9 | x9 | x9 | x9 | x9 |] %17

